packages/foundations/assets/icons/functional/images/logos/db_28.svg

<svg width="28" height="28" viewBox="0 0 28 28" fill="none" xmlns="http://www.w3.org/2000/svg">
<g clip-path="url(#clip0_185_1698)">
<path fill-rule="evenodd" clip-rule="evenodd" d="M23.3333 5.83334C24.622 5.83334 25.6666 6.87804 25.6666 8.1667V19.817C25.6692 21.1094 24.6257 22.1603 23.3333 22.1667H4.67831C3.38775 22.1667 2.33973 21.1239 2.33331 19.8334V8.1667C2.33331 7.54583 2.58074 6.95057 3.02085 6.51265C3.46096 6.07472 4.05745 5.83026 4.67831 5.83334H23.3333ZM23.3333 7.49003H4.67831C4.5021 7.49044 4.33376 7.56304 4.21251 7.6909C4.09127 7.81876 4.02771 7.99072 4.03665 8.1667V19.817C4.03032 19.9914 4.09505 20.1609 4.21601 20.2867C4.33696 20.4125 4.5038 20.4838 4.67831 20.4844H23.3333C23.5058 20.4807 23.6696 20.408 23.788 20.2826C23.9064 20.1571 23.9696 19.9894 23.9633 19.817V8.1667C23.9722 7.99272 23.9102 7.82257 23.7915 7.69506C23.6728 7.56756 23.5075 7.49359 23.3333 7.49003ZM9.46864 8.65437C12.2336 8.65437 13.762 10.3857 13.762 13.951C13.7666 17.045 12.7283 19.32 9.46864 19.3457H5.54398V8.65437H9.46864ZM19.348 8.65903C22.3556 8.65903 22.4 11.0414 22.4 11.263C22.389 12.4118 21.6329 13.4202 20.5333 13.7527C22.4793 14.175 22.7873 15.589 22.7873 16.3404C22.7873 19.3457 19.6676 19.3457 18.6666 19.3457H14.8866V8.65903H19.348ZM8.63098 10.3367H8.11064V17.612H9.02298C10.3833 17.612 11.1743 16.5247 11.1743 14.1727C11.1743 12.019 10.941 10.3367 8.63098 10.3367ZM18.5523 14.8657H17.43V17.612L18.539 17.6119C19.007 17.6096 20.2113 17.5549 20.2113 16.24C20.2113 15.6427 19.8846 14.8657 18.5523 14.8657ZM18.2373 10.3064H17.43V12.887H18.445C19.341 12.887 19.845 12.2944 19.845 11.5944C19.845 10.7077 19.3876 10.3064 18.2373 10.3064Z" fill="#1A1C1F"/>
</g>
<defs>
<clipPath id="clip0_185_1698">
<rect width="28" height="28" fill="white"/>
</clipPath>
</defs>
</svg>

<svg xmlns="http://www.w3.org/2000/svg" width="28" height="28" fill="none"><g clip-path="url(#a)"><path fill="#1A1C1F" fill-rule="evenodd" d="M23.333 5.833a2.333 2.333 0 0 1 2.334 2.334v11.65a2.345 2.345 0 0 1-2.334 2.35H4.678a2.345 2.345 0 0 1-2.345-2.334V8.167a2.333 2.333 0 0 1 2.345-2.334zm0 1.657H4.678a.644.644 0 0 0-.641.677v11.65a.644.644 0 0 0 .641.667h18.655a.644.644 0 0 0 .63-.667V8.167a.644.644 0 0 0-.63-.677M9.47 8.654c2.765 0 4.293 1.732 4.293 5.297.005 3.094-1.034 5.369-4.293 5.395H5.544V8.654zm9.879.005c3.008 0 3.052 2.382 3.052 2.604a2.63 2.63 0 0 1-1.867 2.49c1.946.422 2.254 1.836 2.254 2.587 0 3.006-3.12 3.006-4.12 3.006h-3.78V8.659zM8.631 10.337h-.52v7.275h.912c1.36 0 2.151-1.087 2.151-3.44 0-2.153-.233-3.835-2.543-3.835m9.921 4.529H17.43v2.746h1.109c.468-.002 1.672-.057 1.672-1.372 0-.597-.326-1.374-1.659-1.374m-.315-4.56h-.807v2.581h1.015c.896 0 1.4-.593 1.4-1.293 0-.886-.457-1.288-1.608-1.288" clip-rule="evenodd"/></g><defs><clipPath id="a"><path fill="#fff" d="M0 0h28v28H0z"/></clipPath></defs></svg>
